X: 3134
T: OOR GUID WIFE
Q: "Reel."
R: Reel.
%R: reel
B: James Kerr "Merry Melodies" v.3 p.16 #134
Z: 2016 John Chambers <jc:trillian.mit.edu>
Q:"Reel."
M: C
L: 1/8
K: C
|:\
vG>uc c/c/c c2ce | dcde dcAc |\
G>c c/c/c c2ce | dcde c/c/c (ce) ::\
gage gage | fedc Bdde |\
G>c c/c/c c2ce |[1 dcde c/c/c (ce) :|\
[2 dcde c/c/c c2 |]

%%sep 1 1 500
%%sep 1 1 500

